!!!!SEGMENT: pl-cz--iii-348--002_kobierkowicz-jozef--salve-puelle-centis.krn
!!!cenid: 17xx:925
!!!COM: Kobierkowicz, Józef
!!!COM-rismid: pe30017725
!!!CDT: <1721->=1735
!!!CNT: Polish
!!!OTL: Salve puelle centis
!!!PDT:
!!!AGN: Sacred
!!!SMS-siglum: PL-CZ
!!!SMS-shelfmark: III-348
!!!SMS-shelfwork: 002 W
!!!SMS-variant:
!!!SMS-altvar:
!!!NIFC-rismid: 300237571
!!!URL-scan: http://repozytorium.nifc.pl/skany/pl-cz-nut--iii-348
!!!ONB-nifc: UWAGA: Caelum gaude terra plaude i Salve puelle centis to osobne utwory
!!!key: A
**kern	**fba	**kern	**fba	**kern	**dynam	**kern	**dynam	**kern	**text	**kern	**text
*part6	*part6	*part5	*part5	*part4	*part4	*part3	*part3	*part2	*part2	*part1	*part1
*staff6	*	*staff5	*	*staff4	*	*staff3	*	*staff2	*staff2	*staff1	*staff1
*I"[Basso continuo]	*	*I"Pro Viola	*	*I"Violino 2do	*	*I"[Violino 1mo]	*	*I"Baſso	*	*I"Canto	*
*I'bc	*	*I'vla	*	*I'vl II	*	*I'vl I	*	*I'B	*	*I'S	*
*ICklav	*	*ICstr	*	*ICstr	*	*ICstr	*	*ICvox	*	*ICvox	*
*Iorgan	*	*Iviola	*	*Ivioln	*	*Ivioln	*	*Ibass	*	*Isoprn	*
*clefF4	*	*clefF4	*	*clefG2	*	*clefG2	*	*clefC3	*	*clefC4	*
*A:	*	*A:	*	*A:	*	*A:	*	*A:	*	*A:	*
*k[f#c#g#]	*	*k[f#c#g#]	*	*k[f#c#g#]	*	*k[f#c#g#]	*	*k[f#c#g#]	*	*k[f#c#g#]	*
*M6/4	*	*M6/4	*	*M6/4	*	*M6/4	*	*M6/4	*	*M6/4	*
=1	=1	=1	=1	=1	=1	=1	=1	=1	=1	=1	=1
!!LO:TX:t=P:problem: 2\right or middle	!	!	!	!	!	!	!	!	!
!	!	!	!	!	!	!	!	!LO:TX:t=P:problem= Basso w kluczu altowym	!	!	!
!	!	!	!	!	!	!	!	!	!	!LO:TX:t=P:problem= Canto w kluczu tenorowym	!
4AA/	.	4AA/	.	1.r	.	4ee\	.	1.r	.	1.r	.
4BB/	3	4BB/	.	.	.	8dd\L	.	.	.	.	.
.	.	.	.	.	.	8cc#\	.	.	.	.	.
4C#/	6	4C#/	.	.	.	8b\	.	.	.	.	.
.	.	.	.	.	.	8a\J	.	.	.	.	.
4BB/	6	4BB/	.	.	.	4g#/	.	.	.	.	.
4AA/	.	4AA/	.	.	.	4a/	.	.	.	.	.
4r	.	4r	.	.	.	4r	.	.	.	.	.
=2	=2	=2	=2	=2	=2	=2	=2	=2	=2	=2	=2
!	!	!	!	!	!	!LO:TX:a:t=1	!	!	!	!	!
2.r	.	2.r	.	4ff#\	.	1.r	.	1.r	.	1.r	.
.	.	.	.	4gg#\	.	.	.	.	.	.	.
.	.	.	.	8aa\L	.	.	.	.	.	.	.
.	.	.	.	8dd\J	.	.	.	.	.	.	.
4F#\	6	4F#\	.	4.dd\	.	.	.	.	.	.	.
4G#\	6 5	4G#\	.	.	.	.	.	.	.	.	.
.	.	.	.	8cc#\	.	.	.	.	.	.	.
4A\	.	4A\	.	4cc#\	.	.	.	.	.	.	.
=3	=3	=3	=3	=3	=3	=3	=3	=3	=3	=3	=3
4A\	.	4A\	.	8r	.	8r	.	1.r	.	1.r	.
.	.	.	.	16a/LL	.	16cc#\LL	.	.	.	.	.
.	.	.	.	16b/JJ	.	16dd\JJ	.	.	.	.	.
8r	.	8r	.	4cc#\	.	4ee\	.	.	.	.	.
16AA/LL	.	16AA/LL	.	.	.	.	.	.	.	.	.
16BB/JJ	.	16BB/JJ	.	.	.	.	.	.	.	.	.
8C#/L	.	8C#/L	.	4r	.	4r	.	.	.	.	.
8AA/J	.	8AA/J	.	.	.	.	.	.	.	.	.
4E\	7	4E\	.	8r	.	8r	.	.	.	.	.
.	.	.	.	16g#/LL	.	16b\LL	.	.	.	.	.
.	.	.	.	16a/JJ	.	16cc#\JJ	.	.	.	.	.
8r	.	8r	.	4b/	.	4dd\	.	.	.	.	.
16BB/LL	.	16BB/LL	.	.	.	.	.	.	.	.	.
16C#/JJ	.	16C#/JJ	.	.	.	.	.	.	.	.	.
8D/L	.	8D/L	.	4r	.	4r	.	.	.	.	.
8BB/J	.	8BB/J	.	.	.	.	.	.	.	.	.
=4	=4	=4	=4	=4	=4	=4	=4	=4	=4	=4	=4
4AA/	.	4AA/	.	8a\L	.	8cc#\L	.	1.r	.	1.r	.
.	.	.	.	16b\L	.	16dd\L	.	.	.	.	.
.	.	.	.	16cc#\JJ	.	16ee\JJ	.	.	.	.	.
4r	.	4r	.	8cc#\L	.	8ee\L	.	.	.	.	.
.	.	.	.	16b\L	.	16dd\L	.	.	.	.	.
.	.	.	.	16a\JJ	.	16cc#\JJ	.	.	.	.	.
4r	.	4r	.	8cc#\L	.	8ee\L	.	.	.	.	.
.	.	.	.	16b\L	.	16dd\L	.	.	.	.	.
.	.	.	.	16a\JJ	.	16cc#\JJ	.	.	.	.	.
4E\	7	4E\	.	8b/L	.	8dd\L	.	.	.	.	.
.	.	.	.	8a/	.	8cc#\	.	.	.	.	.
4r	.	4r	.	8b/	.	8dd\	.	.	.	.	.
.	.	.	.	8a/J	.	8cc#\J	.	.	.	.	.
4r	.	4r	.	4g#/	.	4b/	.	.	.	.	.
=5	=5	=5	=5	=5	=5	=5	=5	=5	=5	=5	=5
!	!	!	!	!	!LO:DY:a	!	!LO:DY:a	!	!	!	!
!	!	!	!	!	!LO:DY:t=piano	!	!LO:DY:t=piano	!	!	!	!
4A\	.	4A\	.	8a\L	p	8c#/L	p	1.r	.	1.r	.
.	.	.	.	16b\L	.	16d/L	.	.	.	.	.
.	.	.	.	16cc#\JJ	.	16e/JJ	.	.	.	.	.
4r	.	4r	.	8cc#\L	.	8e/L	.	.	.	.	.
.	.	.	.	16b\L	.	16d/L	.	.	.	.	.
.	.	.	.	16a\JJ	.	16c#/JJ	.	.	.	.	.
4r	.	4r	.	8cc#\L	.	8e/L	.	.	.	.	.
.	.	.	.	16b\L	.	16d/L	.	.	.	.	.
.	.	.	.	16a\JJ	.	16c#/JJ	.	.	.	.	.
4E\	7	4E\	.	8b/L	.	8d/L	.	.	.	.	.
.	.	.	.	8a/	.	8c#/	.	.	.	.	.
4r	.	4r	.	8b/	.	8d/	.	.	.	.	.
.	.	.	.	8a/J	.	8c#/J	.	.	.	.	.
4r	.	4r	.	4g#/	.	4B/	.	.	.	.	.
=6	=6	=6	=6	=6	=6	=6	=6	=6	=6	=6	=6
!	!	!	!	!	!	!	!LO:DY:b:t=forte	!	!	!	!
!	!	!	!	!	!LO:DY:b:t=forte	!	!	!	!	!	!
4A\	.	4A\	.	2.r	f	8aa\	f	1.r	.	1.r	.
.	.	.	.	.	.	4ee\	.	.	.	.	.
4A\	.	4A\	.	.	.	.	.	.	.	.	.
.	.	.	.	.	.	4cc#\	.	.	.	.	.
4A\	.	4A\	.	.	.	.	.	.	.	.	.
.	.	.	.	.	.	8a/	.	.	.	.	.
4d\	7	4d\	.	8ccc#\	.	2f#/	.	.	.	.	.
.	.	.	.	4aa\	.	.	.	.	.	.	.
4d\	.	4d\	.	.	.	.	.	.	.	.	.
.	.	.	.	4ff#\	.	.	.	.	.	.	.
4d\	.	4d\	.	.	.	4r	.	.	.	.	.
.	.	.	.	8dd\	.	.	.	.	.	.	.
=7	=7	=7	=7	=7	=7	=7	=7	=7	=7	=7	=7
4G#\	7	4G#\	.	2b/	.	8ff#\	.	1.r	.	1.r	.
.	.	.	.	.	.	4dd\	.	.	.	.	.
4G#\	.	4G#\	.	.	.	.	.	.	.	.	.
.	.	.	.	.	.	4b/	.	.	.	.	.
4G#\	.	4G#\	.	4r	.	.	.	.	.	.	.
.	.	.	.	.	.	8g#/	.	.	.	.	.
4c#\	7	4c#\	.	8bb\	.	2e/	.	.	.	.	.
.	.	.	.	4gg#\	.	.	.	.	.	.	.
4c#\	.	4c#\	.	.	.	.	.	.	.	.	.
.	.	.	.	4ee\	.	.	.	.	.	.	.
4c#\	.	4c#\	.	.	.	4r	.	.	.	.	.
.	.	.	.	8cc#\	.	.	.	.	.	.	.
=8	=8	=8	=8	=8	=8	=8	=8	=8	=8	=8	=8
4F#\	7	4F#\	.	2a/	.	8ee\	.	1.r	.	1.r	.
.	.	.	.	.	.	4cc#\	.	.	.	.	.
4F#\	.	4F#\	.	.	.	.	.	.	.	.	.
.	.	.	.	.	.	4a/	.	.	.	.	.
4F#\	.	4F#\	.	4r	.	.	.	.	.	.	.
.	.	.	.	.	.	8f#/	.	.	.	.	.
4B\	7	4B\	.	8aa\	.	2d/	.	.	.	.	.
.	.	.	.	4ff#\	.	.	.	.	.	.	.
4B\	.	4B\	.	.	.	.	.	.	.	.	.
.	.	.	.	4dd\	.	.	.	.	.	.	.
!	!	!LO:SIC:v:t=custos E	!	!	!	!	!	!	!	!	!
4B\	.	4B\	.	.	.	4r	.	.	.	.	.
!	!	!	!	!LO:SIC:v:t=custos g#	!	!	!	!	!	!	!
.	.	.	.	8b/	.	.	.	.	.	.	.
!	!	!LO:LB:g=original	!	!LO:LB:g=original	!	!LO:LB:g=original	!	!	!	!	!
=9	=9	=9	=9	=9	=9	=9	=9	=9	=9	=9	=9
4E\	7	4E\	.	2g#/	.	8dd\	.	1.r	.	1.r	.
.	.	.	.	.	.	4b/	.	.	.	.	.
4E\	.	4E\	.	.	.	.	.	.	.	.	.
.	.	.	.	.	.	4g#/	.	.	.	.	.
!LO:SIC:v:t=custos AA	!	!	!	!	!	!	!	!	!	!	!
4E\	.	4E\	.	4r	.	.	.	.	.	.	.
.	.	.	.	.	.	8e/	.	.	.	.	.
!LO:LB:g=original	!	!	!	!	!	!	!	!	!	!	!
4AA`>/	.	4AA/	.	8cc#\L	.	8aa\L	.	.	.	.	.
.	.	.	.	8cc#\J	.	8ee\J	.	.	.	.	.
4AA`>/	.	4AA/	.	4cc#\	.	4ee\	.	.	.	.	.
4AA`>/	.	4AA/	.	4dd\	.	4ff#\	.	.	.	.	.
=10	=10	=10	=10	=10	=10	=10	=10	=10	=10	=10	=10
4AA`>/	.	4AA/	.	4dd\	.	4ff#\	.	1.r	.	1.r	.
4AA`>/	.	4AA/	.	2ee\	.	2ggn\	.	.	.	.	.
4AA`>/	.	4AA/	.	.	.	.	.	.	.	.	.
4AA`>/	.	4AA/	.	8dd\L	.	8ff#\L	.	.	.	.	.
.	.	.	.	8cc#\J	.	8ee\J	.	.	.	.	.
4AA`>/	.	4AA/	.	2dd\	.	2ff#\	.	.	.	.	.
4AA`>/	.	4AA/	.	.	.	.	.	.	.	.	.
=11	=11	=11	=11	=11	=11	=11	=11	=11	=11	=11	=11
!	!	!	!	!	!LO:DY:a:t=piano	!	!LO:DY:b:t=piano	!	!	!	!
4AA`>/	.	4AA/	.	8cc#\L	p	8aa\L	p	1.r	.	1.r	.
.	.	.	.	8cc#\J	.	8ee\J	.	.	.	.	.
4AA`>/	.	4AA/	.	4cc#\	.	4ee\	.	.	.	.	.
4AA`>/	.	4AA/	.	4dd\	.	4ff#\	.	.	.	.	.
4AA`>/	.	4AA/	.	4dd\	.	4ff#\	.	.	.	.	.
4AA`>/	.	4AA/	.	2ee\	.	2ggn\	.	.	.	.	.
4AA`>/	.	4AA/	.	.	.	.	.	.	.	.	.
=12	=12	=12	=12	=12	=12	=12	=12	=12	=12	=12	=12
4AA`>/	.	4AA/	.	8dd\L	.	8ff#\L	.	1.r	.	1.r	.
.	.	.	.	8cc#\J	.	8ee\J	.	.	.	.	.
4AA`>/	.	4AA/	.	2dd\	.	2ff#\	.	.	.	.	.
4AA`>/	.	4AA/	.	.	.	.	.	.	.	.	.
!	!	!	!	!	!LO:DY:b:t=forte	!	!LO:DY:b:t=forte	!	!	!	!
2.r	.	2.r	.	8dd\	f	8ff#\	f	.	.	.	.
.	.	.	.	4cc#\	.	4ee\	.	.	.	.	.
.	.	.	.	4b/	.	4dd\	.	.	.	.	.
.	.	.	.	8a/	.	8cc#\	.	.	.	.	.
=13	=13	=13	=13	=13	=13	=13	=13	=13	=13	=13	=13
4E`>\	.	4E\	.	8g#/L	.	8ee\L	.	1.r	.	1.r	.
.	.	.	.	8g#/J	.	8b\J	.	.	.	.	.
4E`>\	.	4E\	.	4g#/	.	4b\	.	.	.	.	.
4E`>\	.	4E\	.	2a/	.	[4cc#\	.	.	.	.	.
4E`>\	.	4E\	.	.	.	4cc#\]	.	.	.	.	.
4E`>\	.	4E\	.	2b/	.	2dd\	.	.	.	.	.
4E`>\	.	4E\	.	.	.	.	.	.	.	.	.
=14	=14	=14	=14	=14	=14	=14	=14	=14	=14	=14	=14
4E`>\	.	4E\	.	8a/L	.	8cc#\L	.	1.r	.	1.r	.
.	.	.	.	8g#/J	.	8b\J	.	.	.	.	.
4E`>\	.	4E\	.	2a/	.	2cc#\	.	.	.	.	.
4E`>\	.	4E\	.	.	.	.	.	.	.	.	.
!	!	!	!	!	!LO:DY:b:t=piano	!	!LO:DY:b:t=piano	!	!	!	!
4E`>\	.	4E\	.	8g#/L	p	8ee\L	p	.	.	.	.
.	.	.	.	8g#/J	.	8b\J	.	.	.	.	.
4E`>\	.	4E\	.	4g#/	.	4b\	.	.	.	.	.
4E`>\	.	4E\	.	[>4a/	.	[4cc#\	.	.	.	.	.
=15	=15	=15	=15	=15	=15	=15	=15	=15	=15	=15	=15
4E`>\	.	4E\	.	4a/]	.	4cc#\]	.	1.r	.	1.r	.
4E`>\	.	4E\	.	2b/	.	2dd\	.	.	.	.	.
4E`>\	.	4E\	.	.	.	.	.	.	.	.	.
!	!	!	!	!	!LO:DY:b:t=forte	!	!LO:DY:b:t=forte	!	!	!	!
4E`>\	.	4E\	.	8a/L	f	8cc#\L	f	.	.	.	.
.	.	.	.	8g#/	.	8b\	.	.	.	.	.
4A`>\	.	4A\	.	8a/	.	8cc#\	.	.	.	.	.
.	.	.	.	8cc#/	.	8a\	.	.	.	.	.
4r	.	4r	.	8a/	.	8cc#\	.	.	.	.	.
.	.	.	.	8cc#/J	.	8aa\J	.	.	.	.	.
=16	=16	=16	=16	=16	=16	=16	=16	=16	=16	=16	=16
2.r	.	2.r	.	8dd\	.	8ff#\	.	1.r	.	1.r	.
.	.	.	.	4cc#\	.	4ee\	.	.	.	.	.
.	.	.	.	4b/	.	4dd\	.	.	.	.	.
.	.	.	.	8a/	.	8cc#\	.	.	.	.	.
4BB/	6	4BB/	.	4dd\	.	4gg#\	.	.	.	.	.
4AA/	.	4AA/	.	4cc#\	.	4aa\	.	.	.	.	.
4r	.	4r	.	4r	.	4r	.	.	.	.	.
=17	=17	=17	=17	=17	=17	=17	=17	=17	=17	=17	=17
4A\	.	4A\	.	8a/L	.	8cc#\L	.	1.r	.	1.r	.
.	.	.	.	8cc#/	.	8ee\	.	.	.	.	.
4D/	6	4D/	.	8b/	.	8dd\	.	.	.	.	.
.	.	.	.	8a/	.	8cc#\	.	.	.	.	.
4E\	.	4E\	.	8g#/	.	8b\	.	.	.	.	.
!	!	!	!	!LO:SIC:v:t=custos a	!	!	!	!	!	!	!
.	.	.	.	8b/J	.	8dd\J	.	.	.	.	.
!	!	!	!	!LO:LB:g=original	!	!	!	!	!	!	!
4AA/	.	4AA/	.	8a/L	.	8cc#\L	.	.	.	.	.
.	.	.	.	8cc#/	.	8ee\	.	.	.	.	.
4D\	6	4D\	.	8b/	.	8dd\	.	.	.	.	.
.	.	.	.	8a/	.	8cc#\	.	.	.	.	.
4E\	.	4E\	.	8g#/	.	8b\	.	.	.	.	.
.	.	.	.	8b/J	.	8dd\J	.	.	.	.	.
=18	=18	=18	=18	=18	=18	=18	=18	=18	=18	=18	=18
!LO:TX:b:i:t=Tenore	!	!	!	!LO:TX:a:t=1	!	!	!LO:DY:a	!	!	!	!
!	!	!	!	!	!	!	!LO:DY:t=Pi	!	!	!	!
!	!	!	!	!	!	!	!	!	!	!	!
4AA/	.	4AA/	.	1.r	.	4ee\	p	1.r	.	4e\	Sal-
4BB/	3	4BB/	.	.	.	8dd\L	.	.	.	(8d\L	-ve
.	.	.	.	.	.	8cc#\	.	.	.	8c#\J)	.
!	!	!LO:SIC:v:t=custos BB	!	!	!	!	!	!	!	!	!
4C#/	6	4C#/	.	.	.	8b\	.	.	.	(8B\L	Pu-
!	!	!	!	!	!	!LO:SIC:v:t=custos g#	!	!	!	!	!
!	!	!	!	!	!	!LO:TX:t=P:problem= uszkodzone źródło	!	!	!	!	!
.	.	.	.	.	.	8a\J	.	.	.	8A\J)	.
!	!	!	!	!	!	!	!	!	!	!	!
!	!	!LO:LB:g=original	!	!	!	!LO:LB:g=original	!	!	!	!	!
4BB/	6	4BB/	.	.	.	4g#/	.	.	.	4G#/	-el-
4AA/	.	4AA/	.	.	.	4a/	.	.	.	4A/	-le
4r	.	4r	.	.	.	4r	.	.	.	4r	.
=19	=19	=19	=19	=19	=19	=19	=19	=19	=19	=19	=19
!	!	!	!	!	!LO:DY:b:t=piano	!LO:TX:a:t=1	!	!	!	!LO:TX:a:t=1	!
2.r	.	2.r	.	4ff#\	p	1.r	.	4f#\	Pu-	1.r	.
.	.	.	.	4gg#\	.	.	.	4g#\	-el-	.	.
.	.	.	.	8aa\L	.	.	.	8a\L	-le	.	.
.	.	.	.	8dd\J	.	.	.	8d\J	.	.	.
!LO:TX:b:i:t=Alto.	!	!	!	!	!	!	!	!	!	!	!
4F#\	6	4F#\	.	4.dd\	.	.	.	4.d\	cen-	.	.
4G#\	6 5	4G#\	.	.	.	.	.	.	.	.	.
.	.	.	.	8cc#\	.	.	.	8d\	-ti-	.	.
4A\	.	4A\	.	4cc#\	.	.	.	4c#/	-es	.	.
=20	=20	=20	=20	=20	=20	=20	=20	=20	=20	=20	=20
4AA/	.	4AA/	.	4a/	.	4cc#\	.	8r	.	8r	.
.	.	.	.	.	.	.	.	16c#\LL	sal-	16A\LL	Sal-
.	.	.	.	.	.	.	.	16d\JJ	.	16B\JJ	.
4r	.	4r	.	8r	.	8r	.	4e\	.	4c#\	.
.	.	.	.	8cc#\L	.	8ee\L	.	.	.	.	.
4r	.	4r	.	8b\	.	8dd\	.	4r	.	4r	.
.	.	.	.	8a\J	.	8cc#\J	.	.	.	.	.
4BB/	6	4BB/	.	4b/	.	4dd\	.	8r	.	8r	.
.	.	.	.	.	.	.	.	16B/LL	.	16G#/LL	.
.	.	.	.	.	.	.	.	16c#/JJ	.	16A/JJ	.
4r	.	4r	.	8r	.	8r	.	4d\	-ve	4B\	-ve
.	.	.	.	8b/L	.	8dd\L	.	.	.	.	.
4E\	7	4E\	.	8a/	.	8cc#\	.	4r	.	4r	.
.	.	.	.	8g#/J	.	8b\J	.	.	.	.	.
!LO:LB:g=original	!	!	!	!	!	!	!	!	!	!	!
=21	=21	=21	=21	=21	=21	=21	=21	=21	=21	=21	=21
4A\	.	4A\	.	4cc#\	.	4ee\	.	2.r	.	4.e\	Sal-
4A\	.	4A\	.	4cc#\	.	4ee\	.	.	.	.	.
.	.	.	.	.	.	.	.	.	.	4c#\	.
4A\	.	4A\	.	4cc#\	.	4ee\	.	.	.	.	.
.	.	.	.	.	.	.	.	.	.	8A/	.
4D/	7	4D/	.	4cc#\	.	4ff#\	.	8cc#\	sal-	2f#\	-ve
.	.	.	.	.	.	.	.	4a\	.	.	.
4D/	.	4D/	.	4cc#\	.	4ff#\	.	.	.	.	.
.	.	.	.	.	.	.	.	4f#\	.	.	.
4D/	.	4D/	.	4cc#\	.	4ff#\	.	.	.	4r	.
.	.	.	.	.	.	.	.	8d\	.	.	.
=22	=22	=22	=22	=22	=22	=22	=22	=22	=22	=22	=22
4G#\	7	4G#\	.	4b/	.	4ff#\	.	2b\	-ve	8f#\	Sal-
.	.	.	.	.	.	.	.	.	.	4d\	.
4G#\	.	4G#\	.	4b/	.	4ff#\	.	.	.	.	.
.	.	.	.	.	.	.	.	.	.	4B\	.
4G#\	.	4G#\	.	4b/	.	4ff#\	.	4r	.	.	.
.	.	.	.	.	.	.	.	.	.	8G#/	.
4C#/	7	4C#/	.	4b/	.	4ee\	.	8b\	sal-	2e\	-ve
.	.	.	.	.	.	.	.	4g#\	.	.	.
4C#/	.	4C#/	.	4b/	.	4ee\	.	.	.	.	.
.	.	.	.	.	.	.	.	4e\	.	.	.
4C#/	.	4C#/	.	4b/	.	4ee\	.	.	.	4r	.
.	.	.	.	.	.	.	.	8c#/	.	.	.
=23	=23	=23	=23	=23	=23	=23	=23	=23	=23	=23	=23
4F#\	7	4F#\	.	4a/	.	4ee\	.	2a\	-ve	8e\	Sal-
.	.	.	.	.	.	.	.	.	.	4c#\	.
4F#\	.	4F#\	.	4a/	.	4ee\	.	.	.	.	.
.	.	.	.	.	.	.	.	.	.	4A/	.
4F#\	.	4F#\	.	4a/	.	4ee\	.	4r	.	.	.
.	.	.	.	.	.	.	.	.	.	8F#/	.
4BB/	7	4BB/	.	4a/	.	4dd\	.	8a\	sal-	2d\	-ve
.	.	.	.	.	.	.	.	4f#\	.	.	.
4BB/	.	4BB/	.	4a/	.	4dd\	.	.	.	.	.
.	.	.	.	.	.	.	.	4d\	.	.	.
4BB/	.	4BB/	.	4a/	.	4dd\	.	.	.	4r	.
.	.	.	.	.	.	.	.	8B/	.	.	.
=24	=24	=24	=24	=24	=24	=24	=24	=24	=24	=24	=24 
4E\	.	4E\	.	4g#/	.	4dd\	.	2g#\	-ve	8d\	Sal-
.	.	.	.	.	.	.	.	.	.	4B\	.
4E\	.	4E\	.	4g#/	.	4dd\	.	.	.	.	.
.	.	.	.	.	.	.	.	.	.	4G#/	.
4E\	.	4E\	.	4g#/	.	4dd\	.	4r	.	.	.
!	!	!	!	!	!	!	!	!	!	!LO:SIC:v:t=custos c#	!
.	.	.	.	.	.	.	.	.	.	8E/	-ve
!	!	!	!	!	!	!	!	!	!	!LO:LB:g=original	!
4AA`/	.	4AA/	.	8a\L	.	8cc#\L	.	8a\L	sal-	4c#\	Sal-
.	.	.	.	8cc#\J	.	8ee\J	.	8e\J	.	.	.
4AA`/	.	4AA/	.	4cc#\	.	4ee\	.	4e\	-ve	4c#\	-ve
!	!	!	!	!	!	!	!	!LO:SIC:v:t=custos f#	!	!	!
4AA`/	.	4AA/	.	4dd\	.	4ff#\	.	4f#\	Pu-	4d\	Pu-
!	!	!	!	!	!	!	!	!LO:LB:g=original	!	!	!
=25	=25	=25	=25	=25	=25	=25	=25	=25	=25	=25	=25
4AA`/	.	4AA/	.	4dd\	.	4ff#\	.	4f#\	-el-	4d\	-el-
4AA`/	.	4AA/	.	2ee\	.	2ggn\	.	2gn\	-le	2e\	-le
4AA`/	.	4AA/	.	.	.	.	.	.	.	.	.
4AA`/	.	4AA/	.	8dd\L	.	8ff#\L	.	8f#\	cen-	8d\	cen-
.	.	.	.	8cc#\J	.	8ee\J	.	8e\	-ti-	8c#\	-ti-
4AA`/	.	4AA/	.	2dd\	.	2ff#\	.	2f#\	-es	2d\	-es
4AA`/	.	4AA/	.	.	.	.	.	.	.	.	.
=26	=26	=26	=26	=26	=26	=26	=26	=26	=26	=26	=26
4AA`/	.	4AA/	.	8cc#\L	.	8aa\L	.	8a\L	Pu-	4c#\	Pu-
.	.	.	.	8cc#\J	.	8ee\J	.	8e\J	.	.	.
4AA`/	.	4AA/	.	4cc#\	.	4ee\	.	4e\	-el-	4c#\	-el-
4AA`/	.	4AA/	.	4dd\	.	4ff#\	.	4f#\	-le	4d\	-le
4AA`/	.	4AA/	.	4dd\	.	4ff#\	.	4f#\	sal-	4d\	Sal-
4AA`/	.	4AA/	.	2ee\	.	2ggn\	.	2gn\	-ve	2e\	-ve
4AA`/	.	4AA/	.	.	.	.	.	.	.	.	.
=27	=27	=27	=27	=27	=27	=27	=27	=27	=27	=27	=27
4AA/	6_ 4_	4AA/	.	8dd\L	.	8ff#\L	.	8f#\	mil-	8d\	mil-
.	.	.	.	8cc#\J	.	8ee\J	.	8e\	-li-	8c#\	-li-
!	!	!	!	!	!	!LO:TX:t=P:problem=niepotrzebnie wstawiona kreska taktowa	!	!	!	!	!
!	!	!	!	!LO:SIC:v:t=custos dd	!	!	!	!	!	!	!
4AA/	.	4AA/	.	2dd\	.	2ff#\	.	2f#\	-es	2d\	-es
4D\	x 3	4D\	.	.	.	.	.	.	.	.	.
!	!	!	!	!	!LO:DY:b:t=forte	!	!	!LO:TX:t=P:problem=brak kreski taktowej	!	!LO:TX:t=P:problem=brak kreski taktowej	!
!	!	!	!	!LO:LB:g=original	!	!	!	!	!	!	!
!	!	!LO:SIC:v:t=custos E	!	!	!	!	!	!	!	!	!
!	!	!LO:N:vis=2	!	!	!	!	!	!	!	!	!
2.r	.	2.r	.	8dd\	f	8ff#\	.	2.r	.	2.r	.
!	!	!	!	!	!	!	!LO:DY:b:t=forte	!	!	!	!
.	.	.	.	4cc#\	.	4ee\	f	.	.	.	.
.	.	.	.	4b/	.	4dd\	.	.	.	.	.
!	!	!	!	!	!	!LO:TX:t=P:problem=brak kreski taktowej	!	!	!	!	!
.	.	.	.	8a/	.	8cc#\	.	.	.	.	.
!	!	!LO:LB:g=original	!	!	!	!	!	!	!	!	!
=28	=28	=28	=28	=28	=28	=28	=28	=28	=28	=28	=28
!LO:TX:b:i:t=V.Viol&colon;	!	!	!	!	!	!	!	!	!	!LO:TX:a:t=3.	!
4E`\	.	4E\	.	8g#/	.	8b\	.	1.r	.	1.r	.
.	.	.	.	4cc#\	.	4ee\	.	.	.	.	.
4E`\	.	4E\	.	.	.	.	.	.	.	.	.
.	.	.	.	4b/	.	4dd\	.	.	.	.	.
4E`\	.	4E\	.	.	.	.	.	.	.	.	.
.	.	.	.	8a/	.	8cc#\	.	.	.	.	.
4E`\	.	4E\	.	8g#/	.	8b\	.	.	.	.	.
.	.	.	.	4cc#\	.	4ee\	.	.	.	.	.
4E`\	.	4E\	.	.	.	.	.	.	.	.	.
.	.	.	.	4b\	.	4dd\	.	.	.	.	.
4E`\	.	4E\	.	.	.	.	.	.	.	.	.
!	!	!	!	!	!	!LO:SIC:v:t=custos b	!	!	!	!	!
.	.	.	.	8a/	.	8cc#\	.	.	.	.	.
!	!	!	!	!	!	!LO:LB:g=original	!	!	!	!	!
=29	=29	=29	=29	=29	=29	=29	=29	=29	=29	=29	=29
4E`\	.	4E\	.	8g#/	.	8b\	.	1.r	.	1.r	.
.	.	.	.	4cc#\	.	4ee\	.	.	.	.	.
4E`\	.	4E\	.	.	.	.	.	.	.	.	.
.	.	.	.	4b/	.	4dd\	.	.	.	.	.
4E`\	.	4E\	.	.	.	.	.	.	.	.	.
.	.	.	.	8a/	.	8cc#\	.	.	.	.	.
4E`\	.	4E\	.	8a/L	.	8cc#\L	.	.	.	.	.
.	.	.	.	8g#/J	.	8b\J	.	.	.	.	.
4A`\	.	4A\	.	4a/	.	4cc#\	.	.	.	.	.
4r	.	4r	.	4r	.	4r	.	.	.	.	.
=30	=30	=30	=30	=30	=30	=30	=30	=30	=30	=30	=30
4A\	3	4A\	.	8a\L	.	8cc#\L	.	1.r	.	1.r	.
.	.	.	.	8b\	.	8dd\	.	.	.	.	.
4r	.	4r	.	8cc#\	.	8ee\	.	.	.	.	.
.	.	.	.	8b\	.	8dd\	.	.	.	.	.
4r	.	4r	.	8cc#\	.	8ee\	.	.	.	.	.
.	.	.	.	8dd\J	.	8ff#\J	.	.	.	.	.
4A\	7	4A\	.	4ee\	.	4ggn\	.	.	.	.	.
4r	.	4r	.	8dd\L	.	8ff#\L	.	.	.	.	.
.	.	.	.	8cc#\J	.	8ee\J	.	.	.	.	.
4r	.	4r	.	4dd\	.	4ff#\	.	.	.	.	.
=31	=31	=31	=31	=31	=31	=31	=31	=31	=31	=31	=31
!LO:TX:b:i:t=Alto Tenore.	!	!	!	!	!	!	!	!	!	!	!
!	!	!	!	!	!LO:DY:b:t=piano	!	!LO:DY:b:t=piano	!	!	!	!
4A`\	.	4A\	.	8cc#\L	p	8ee\L	p	8e\L	Sal-	8c#\L	Sal-
.	.	.	.	8ff#\	.	8aa\	.	8a\J	.	8f#\J	.
4A`\	.	4A\	.	8ee\	.	8ggn\	.	8gn\	-ve	8e\	-ve
.	.	.	.	8dd\	.	8ff#\	.	8f#\	Pu-	8d\	pu-
4A`\	.	4A\	.	8ee\	.	8ggn\	.	8gn\	-el-	8e\	-el-
.	.	.	.	8dd\J	.	8ff#\J	.	8f#\	-le	8d\	-le
4A\	7	4A\	.	8ee\L	.	8ggn\L	.	8gn\	cen-	8e\	cen-
.	.	.	.	8cc#\J	.	8ee\J	.	8e\	-ti-	8c#\	-ti-
4D/	3	4D/	.	4dd\	.	4ff#\	.	4f#\	-es	4d\	-es
4r	.	4r	.	4r	.	4r	.	4r	.	4r	.
!LO:LB:g=original	!	!	!	!	!	!	!	!	!	!	!
=32	=32	=32	=32	=32	=32	=32	=32	=32	=32	=32	=32
4A`\	.	4A\	.	8cc#\L	.	8ee\L	.	8e\L	Pu-	8c#\L	pu-
.	.	.	.	8ff#\	.	8aa\	.	8a\J	.	8f#\J	.
4A`\	.	4A\	.	8ee\	.	8ggn\	.	8gn\	-el-	8e\	-el-
.	.	.	.	8dd\	.	8ff#\	.	8f#\	-le	8d\	-le
4A`\	.	4A\	.	8ee\	.	8ggn\	.	8gn\	sal-	8e\	sal-
.	.	.	.	8dd\J	.	8ff#\J	.	8f#\	-ve	8d\	-ve
4A\	7	4A\	.	8ee\L	.	8ggn\L	.	8gn\	mil-	8e\	mil-
!	!	!	!	!	!	!	!	!LO:SIC:v:t=custos f#	!	!	!
.	.	.	.	8cc#\J	.	8ee\J	.	8e\	-li-	8c#\	-li-
!	!	!	!	!	!	!	!	!LO:LB:g=original	!	!	!
4D/	3	4D/	.	4dd\	.	4ff#\	.	4f#\	-es	4d\	-es
4r	.	4r	.	4r	.	4r	.	4r	.	4r	.
!	!	!	!	!	!	!	!	!	!	!LO:LB:g=original	!
=33	=33	=33	=33	=33	=33	=33	=33	=33	=33	=33	=33
4A`\	.	4A\	.	8cc#\	.	8ee\	.	8e\	Sal-	8c#\	Sal-
.	.	.	.	4ff#\	.	4aa\	.	4a\	.	4f#\	.
4A`\	.	4A\	.	.	.	.	.	.	.	.	.
.	.	.	.	4ee\	.	4ggn\	.	4gn\	.	4e\	.
4A`\	.	4A\	.	.	.	.	.	.	.	.	.
.	.	.	.	8dd\	.	8ff#\	.	8f#\	.	8d\	.
4A`\	.	4A\	.	8cc#\	.	8ee\	.	8e\	.	8c#\	.
.	.	.	.	4ff#\	.	4aa\	.	4a\	.	4f#\	.
4A`\	.	4A\	.	.	.	.	.	.	.	.	.
.	.	.	.	4ee\	.	4ggn\	.	4gn\	.	4e\	.
4A`\	.	4A\	.	.	.	.	.	.	.	.	.
.	.	.	.	8dd\	.	8ff#\	.	8f#\	.	8d\	.
=34	=34	=34	=34	=34	=34	=34	=34	=34	=34	=34	=34
!! 
4A`\	.	4A\	.	8cc#\	.	8ee\	.	8e\	.	8c#\	.
.	.	.	.	4ff#\	.	4aa\	.	4a\	.	4f#\	.
4A`\	.	4A\	.	.	.	.	.	.	.	.	.
.	.	.	.	4ee\	.	4ggn\	.	4gn\	.	4e\	.
4A`\	.	4A\	.	.	.	.	.	.	.	.	.
!	!	!	!	!LO:SIC:v:t=custos ee	!	!	!	!	!	!	!
.	.	.	.	8dd\	.	8ff#\	.	8f#\	.	8d\	.
!	!	!	!	!LO:LB:g=original	!	!	!	!	!	!	!
4A\	7	4A\	.	8ee\L	.	8ggn\L	.	8gn\L	.	8d\L	.
.	.	.	.	8cc#\J	.	8ee\J	.	8e\J	.	8c#\J	.
4D/	3	4D/	.	4dd\	.	4ff#\	.	4f#\	-ve	4d\	-ve
4r	.	4r	.	4r	.	4r	.	4r	.	4r	.
=35	=35	=35	=35	=35	=35	=35	=35	=35	=35	=35	=35
2.D\	.	2.D\	.	1.r	.	1.r	.	2.r	.	4r	.
.	.	.	.	.	.	.	.	.	.	4A/	Sal-
.	.	.	.	.	.	.	.	.	.	[4d\	.
2.A\	4:3	2.A\	.	.	.	.	.	4r	.	4d\]	.
.	.	.	.	.	.	.	.	4e\	Sal-	8c#\L	.
.	.	.	.	.	.	.	.	.	.	8B\J	.
.	.	.	.	.	.	.	.	[4a\	.	4c#\	-ve
=36	=36	=36	=36	=36	=36	=36	=36	=36	=36	=36	=36
2.E\	4:-3	2.E\	.	1.r	.	1.r	.	4a\]	.	2B\	sal-
.	.	.	.	.	.	.	.	8gn\L	.	.	.
.	.	.	.	.	.	.	.	8f#\J	.	.	.
.	.	.	.	.	.	.	.	4gn\	.	2e\	.
2B\	4:3	2B\	.	.	.	.	.	2f#\	.	.	.
.	.	.	.	.	.	.	.	.	.	8d\L	.
.	.	.	.	.	.	.	.	.	.	8c#\J	.
8B\L	.	8B\L	.	.	.	.	.	[4b\	.	4d\	.
8A\J	.	8A\J	.	.	.	.	.	.	.	.	.
=37	=37	=37	=37	=37	=37	=37	=37	=37	=37	=37	=37
!	!	!LO:SIC:v:t=custos F#	!	!	!	!	!	!	!	!	!
2.Gn\	7:6	2.Gn\	.	1.r	.	1.r	.	4b\]	.	2f#\	.
.	.	.	.	.	.	.	.	8a\L	.	.	.
.	.	.	.	.	.	.	.	8gn\J	.	.	.
.	.	.	.	.	.	.	.	4b\	.	2e\	.
!	!	!LO:LB:g=original	!	!	!	!	!	!	!	!	!
2.F#\	7:6	2.F#\	.	.	.	.	.	2.a\	.	.	.
.	.	.	.	.	.	.	.	.	.	8d\L	.
.	.	.	.	.	.	.	.	.	.	8c#\J	.
.	.	.	.	.	.	.	.	.	.	[4d\	.
=38	=38	=38	=38	=38	=38	=38	=38	=38	=38	=38	=38
2.E\	7:6 -	2.E\	.	1.r	.	1.r	.	2.gn\	.	4d\]	.
.	.	.	.	.	.	.	.	.	.	8c#\L	.
.	.	.	.	.	.	.	.	.	.	8B\J	.
.	.	.	.	.	.	.	.	.	.	4c#\	.
4D\	.	4D/	.	.	.	.	.	4f#\	-ve	4d\	-ve
4r	.	4r	.	.	.	.	.	4r	.	4d\	Do-
4r	.	4r	.	.	.	.	.	4r	.	4d\	-rmi
=39	=39	=39	=39	=39	=39	=39	=39	=39	=39	=39	=39
!LO:TX:a:t=6.	!	!LO:TX:a:t=6	!	!	!	!	!	!	!	!	!
1.r	.	1.r	.	8dd\	.	8ff#\	.	4f#\	Sal-	[2.d\	Dor-
.	.	.	.	4ff#\	.	4aa\	.	.	.	.	.
.	.	.	.	.	.	.	.	4a\	-ve	.	.
.	.	.	.	4ee\	.	4ggn\	.	.	.	.	.
!	!	!	!	!	!	!	!	!LO:SIC:v:t=custos f#	!	!	!
.	.	.	.	.	.	.	.	4a\	Pu-	.	.
.	.	.	.	8dd\	.	8ff#\	.	.	.	.	.
!	!	!	!	!	!	!	!	!LO:LB:g=original	!	!	!
.	.	.	.	8ff#\L	.	8aa\L	.	4f#\	-el-	2.d\_	.
.	.	.	.	8dd\J	.	8ff#\J	.	.	.	.	.
.	.	.	.	4gg#\	.	4bb\	.	2gn\	-le	.	.
.	.	.	.	4bb\	.	4ggn\	.	.	.	.	.
!	!	!	!	!	!	!LO:LB:g=original	!	!	!	!	!
=40	=40	=40	=40	=40	=40	=40	=40	=40	=40	=40	=40
1.r	.	1.r	.	8dd\L	.	8ff#\L	.	8f#\	cen-	2.d\_	.
.	.	.	.	8ee\J	.	8ggn\J	.	8e\	-ti-	.	.
.	.	.	.	4ff#\	.	4aa\	.	2f#\	-es	.	.
.	.	.	.	4dd\	.	[4ff#\	.	.	.	.	.
.	.	.	.	8dd\	.	8ff#\]	.	4f#\	pu-	2.d\_	.
.	.	.	.	4ff#\	.	4aa\	.	.	.	.	.
.	.	.	.	.	.	.	.	4a\	-el-	.	.
.	.	.	.	4ee\	.	4ggn\	.	.	.	.	.
.	.	.	.	.	.	.	.	4a\	-le	.	.
.	.	.	.	8dd\	.	8ff#\	.	.	.	.	.
=41	=41	=41	=41	=41	=41	=41	=41	=41	=41	=41	=41
1.r	.	1.r	.	8ff#\L	.	8aa\L	.	4f#\	sal-	2.d\_	.
.	.	.	.	8dd\J	.	8ff#\J	.	.	.	.	.
.	.	.	.	4gg#\	.	4bb\	.	2gn\	-ve	.	.
.	.	.	.	4bb\	.	4ggn\	.	.	.	.	.
!	!	!	!	!	!	!	!	!	!	!LO:LB:g=original	!
.	.	.	.	8dd\L	.	8ff#\L	.	8f#\	mil-	2.d\]	.
.	.	.	.	8ee\J	.	8ggn\J	.	8e\	-li-	.	.
.	.	.	.	4ff#\	.	4aa\	.	2f#\	-es	.	.
.	.	.	.	4dd\	.	4ff#\	.	.	.	.	.
=42	=42	=42	=42	=42	=42	=42	=42	=42	=42	=42	=42
1.r	.	1.r	.	4a/	.	4a/	.	4r	.	2c#\	-mi
.	.	.	.	4A/	.	4A/	.	4a\	Dor-	.	.
.	.	.	.	4r	.	4r	.	4a\	-mi	4r	.
.	.	.	.	8ee\L	.	8cc#\L	.	[2.a\	Dor-	4c#\	Dor-
.	.	.	.	8dd\J	.	8dd\J	.	.	.	.	.
.	.	.	.	4cc#\	.	4ee\	.	.	.	4e\	-mi
.	.	.	.	4ee\	.	4cc#\	.	.	.	4e\	de-
=43	=43	=43	=43	=43	=43	=43	=43	=43	=43	=43	=43
1.r	.	1.r	.	4cc#\	.	4ee\	.	2.a\_	.	4c#\	-co-
.	.	.	.	8dd\L	.	8ff#\L	.	.	.	2d\	-re
.	.	.	.	8cc#\J	.	8ee\J	.	.	.	.	.
.	.	.	.	4dd\	.	4ff#\	.	.	.	.	.
.	.	.	.	8cc#\L	.	8ee\L	.	2.a\_	.	8c#\	re-
.	.	.	.	8b\J	.	8dd\J	.	.	.	8B\	-gu-
.	.	.	.	4a/	.	4cc#\	.	.	.	2A/	-le
.	.	.	.	4cc#\	.	4ee\	.	.	.	.	.
=44	=44	=44	=44	=44	=44	=44	=44	=44	=44	=44	=44
!LO:TX:t=P:problem=brak kreski taktowej	!	!LO:TX:t=P:problem=brak kreski taktowej	!	!	!	!	!	!	!	!	!
1.r	.	1.r	.	8ee\L	.	8cc#\L	.	2.a\_	.	4c#\	for-
.	.	.	.	8dd\J	.	8dd\J	.	.	.	.	.
.	.	.	.	4cc#\	.	4ee\	.	.	.	4e\	-mo-
.	.	.	.	4ee\	.	4cc#\	.	.	.	4e\	-se
.	.	.	.	4cc#\	.	4ee\	.	2.a\]	.	4c#\	dor-
.	.	.	.	8dd\L	.	8ff#\L	.	.	.	2d\	-mi
.	.	.	.	8cc#\J	.	8ee\J	.	.	.	.	.
.	.	.	.	4dd\	.	4ff#\	.	.	.	.	.
=45	=45	=45	=45	=45	=45	=45	=45	=45	=45	=45	=45
2.r	.	2.r	.	8cc#\L	.	8ee\L	.	2.a\	-mi	8c#\	flo-
.	.	.	.	8b\J	.	8dd\J	.	.	.	8B\	-scu-
.	.	.	.	4a/	.	4cc#\	.	.	.	2A/	-le
.	.	.	.	4cc#\	.	4ee\	.	.	.	.	.
4AA`>/	.	4AA/	.	2.r	.	2.r	.	8c#\L	Dor-	8A\L	Dor-
.	.	.	.	.	.	.	.	8d\J	.	8B\J	.
4AA`>/	.	4AA/	.	.	.	.	.	8e\	-mi	8c#\	-mi
.	.	.	.	.	.	.	.	8d\	de-	8B\	de-
4AA`>/	.	4AA/	.	.	.	.	.	8e\	-co-	8c#\	-co-
.	.	.	.	.	.	.	.	8f#\	-re	8d\	-re
=46	=46	=46	=46	=46	=46	=46	=46	=46	=46	=46	=46
!	!	!	!	!	!	!LO:TX:t=P:problem=brak kreski taktowej	!	!	!	!	!
!	!	!	!	!LO:TX:a:t=1	!	!LO:TX:a:t=1	!	!	!	!	!
4AA`>/	.	4AA/	.	1.r	.	1.r	.	4gn\	Re-	4e\	Re-
4r	.	4r	.	.	.	.	.	8f#\	.	8d\	.
!	!	!	!	!	!	!	!	!LO:SIC:v:t=custos f#	!	!	!
.	.	.	.	.	.	.	.	8e\	-gu-	8c#\	-gu-
!	!	!	!	!	!	!	!	!LO:LB:g=original	!	!	!
4r	.	4r	.	.	.	.	.	4f#\	-le	4d\	-le
4AA/	.	4AA/	.	.	.	.	.	8c#\L	for-	8A\L	for-
.	.	.	.	.	.	.	.	8d\J	.	8B\J	.
4AA/	.	4AA/	.	.	.	.	.	8e\	-mo-	8c#\	-mo-
.	.	.	.	.	.	.	.	8d\	-se	8B\	-se
!	!	!	!	!	!	!	!	!	!	!LO:LB:g=original	!
4AA/	.	4AA/	.	.	.	.	.	8e\	dor-	8c#\	dor-
.	.	.	.	.	.	.	.	8f#\	-mi	8d\	-mi
=47	=47	=47	=47	=47	=47	=47	=47	=47	=47	=47	=47
!	!	!	!	!	!	!	!	!	!	!	!
4AA/	.	4AA/	.	2.r	.	2.r	.	4g#\	flo-	4e\	flo-
4r	.	4r	.	.	.	.	.	8f#\	.	8d\	.
.	.	.	.	.	.	.	.	8e\	-scu-	8c#\	-scu-
4r	.	4r	.	.	.	.	.	4f#\	-le	4d\	-le
4A\	.	4A\	.	4cc#\	.	4ee\	.	2.r	.	4.e\	Dor-
4A\	.	4A\	.	4cc#\	.	4ee\	.	.	.	.	.
.	.	.	.	.	.	.	.	.	.	4c#\	.
4A\	.	4A\	.	4cc#\	.	4ee\	.	.	.	.	.
.	.	.	.	.	.	.	.	.	.	8A/	.
!	!	!	!	!LO:LB:g=original	!	!	!	!	!	!	!
=48	=48	=48	=48	=48	=48	=48	=48	=48	=48	=48	=48
4d\	7	4d\	.	4cc#\	.	4ff#\	.	8cc#\	Dor-	2f#\	-mi
.	.	.	.	.	.	.	.	4a\	.	.	.
4d\	.	4d\	.	4cc#\	.	4ff#\	.	.	.	.	.
.	.	.	.	.	.	.	.	4f#\	.	.	.
4d\	.	4d\	.	4cc#\	.	4ff#\	.	.	.	4r	.
.	.	.	.	.	.	.	.	8d\	.	.	.
4G#\	7	4G#\	.	4b/	.	4ff#\	.	2b\	-mi	8f#\	Dor-
.	.	.	.	.	.	.	.	.	.	4d\	.
4G#\	.	4G#\	.	4b/	.	4ff#\	.	.	.	.	.
.	.	.	.	.	.	.	.	.	.	4B\	.
4G#\	.	4G#\	.	4b/	.	4ff#\	.	4r	.	.	.
.	.	.	.	.	.	.	.	.	.	8G#/	.
!LO:LB:g=original	!	!	!	!	!	!	!	!	!	!	!
=49	=49	=49	=49	=49	=49	=49	=49	=49	=49	=49	=49
4c#\	7	4c#\	.	4b/	.	4ee\	.	8b\	Dor-	2e\	-mi
.	.	.	.	.	.	.	.	4g#\	.	.	.
4c#\	.	4c#\	.	4b/	.	4ee\	.	.	.	.	.
.	.	.	.	.	.	.	.	4e\	.	.	.
4c#\	.	4c#\	.	4b/	.	4ee\	.	.	.	4r	.
.	.	.	.	.	.	.	.	8c#/	.	.	.
4F#\	7	4F#\	.	4a/	.	4ee\	.	2a\	-mi	8e\	Dor-
.	.	.	.	.	.	.	.	.	.	4c#\	.
4F#\	.	4F#\	.	4a/	.	4ee\	.	.	.	.	.
.	.	.	.	.	.	.	.	.	.	4A/	.
4F#\	.	4F#\	.	4a/	.	4ee\	.	4r	.	.	.
.	.	.	.	.	.	.	.	.	.	8F#/	.
=50	=50	=50	=50	=50	=50	=50	=50	=50	=50	=50	=50
4B\	7	4B\	.	4a/	.	4dd\	.	8a\	Dor-	2d\	-mi
.	.	.	.	.	.	.	.	4f#\	.	.	.
4B\	.	4B\	.	4a/	.	4dd\	.	.	.	.	.
.	.	.	.	.	.	.	.	4d\	.	.	.
!	!	!	!	!	!	!LO:SIC:v:t=custos dd	!	!	!	!	!
4B\	.	4B\	.	4a/	.	4dd\	.	.	.	4r	.
.	.	.	.	.	.	.	.	8B/	.	.	.
!	!	!	!	!	!	!LO:LB:g=original	!	!	!	!	!
4E\	7	4E\	.	4g#/	.	4dd\	.	2g#\	-mi	8d\	Dor-
.	.	.	.	.	.	.	.	.	.	4B\	.
4E\	.	4E\	.	4g#/	.	4dd\	.	.	.	.	.
.	.	.	.	.	.	.	.	.	.	4G#/	.
4E\	.	4E\	.	4g#/	.	4dd\	.	4r	.	.	.
.	.	.	.	.	.	.	.	.	.	8E/	.
=51	=51	=51	=51	=51	=51	=51	=51	=51	=51	=51	=51
!	!	!	!	!LO:TX:a:t=2	!	!LO:TX:a:t=2	!	!	!	!	!
4A\	3	4A\	.	1.r	.	1.r	.	8e\L	dor-	8c#\	-mi
.	.	.	.	.	.	.	.	8a\J	.	8f#\	Dor-
4AA`>/	.	4AA/	.	.	.	.	.	8a\	-mi	8f#\	-mi
.	.	.	.	.	.	.	.	8gn\	de-	8e\	de-
4AA`>/	.	4AA/	.	.	.	.	.	8g\	-co-	8e\	-co-
.	.	.	.	.	.	.	.	8f#\	-re	8d\	-re
!	!	!	!	!	!	!	!	!LO:SIC:v:t=custos f#	!	!	!
4AA`>/	.	4AA/	.	.	.	.	.	4gn\	Re-	4e\	Re-
!	!	!	!	!	!	!	!	!LO:LB:g=original	!	!	!
4r	.	4r	.	.	.	.	.	8f#\	.	8d\	.
.	.	.	.	.	.	.	.	8e\	-gu-	8c#\	-gu-
4r	.	4r	.	.	.	.	.	4f#\	-le	4d\	-le
=52	=52	=52	=52	=52	=52	=52	=52	=52	=52	=52	=52
4AA`>/	.	4AA/	.	1.r	.	1.r	.	8e\L	for-	8c#\L	for-
!	!	!	!	!	!	!	!	!	!	!LO:SIC:v:t=custos f#	!
.	.	.	.	.	.	.	.	8a\J	.	8f#\J	.
!	!	!	!	!	!	!	!	!	!	!LO:LB:g=original	!
4AA`>/	.	4AA/	.	.	.	.	.	8a\	-mo-	8f#\	-mo-
.	.	.	.	.	.	.	.	8gn\	-se	8e\	-se
!	!	!LO:SIC:v:t=custos AA	!	!	!	!	!	!	!	!	!
4AA`>/	.	4AA/	.	.	.	.	.	8g\	dor-	8e\	dor-
.	.	.	.	.	.	.	.	8f#\	-mi	8d\	-mi
!	!	!LO:LB:g=original	!	!	!	!	!	!	!	!	!
4AA`>/	.	4AA/	.	.	.	.	.	4gn\	flo-	4e\	flo-
4r	.	4r	.	.	.	.	.	8f#\	.	8d\	.
.	.	.	.	.	.	.	.	8e\	-scu-	8c#\	-scu-
4r	.	4r	.	.	.	.	.	4f#\	-le	4d\	-le
=53	=53	=53	=53	=53	=53	=53	=53	=53	=53	=53	=53
!	!	!	!	!	!LO:DY:b:t=forte	!	!LO:DY:b:t=forte	!	!	!	!
4D\	3	4D\	.	8dd\	f	8ff#\	f	1.r	.	1.r	.
.	.	.	.	4cc#\	.	4ee\	.	.	.	.	.
4r	.	4r	.	.	.	.	.	.	.	.	.
.	.	.	.	4b/	.	4dd\	.	.	.	.	.
4r	.	4r	.	.	.	.	.	.	.	.	.
.	.	.	.	8a/	.	8cc#\	.	.	.	.	.
4E\	7	4E\	.	4g#/	.	4b\	.	.	.	.	.
4AA/	.	4AA/	.	4a/	.	4cc#\	.	.	.	.	.
4r	.	4r	.	4r	.	4r	.	.	.	.	.
=54	=54	=54	=54	=54	=54	=54	=54	=54	=54	=54	=54
4E`\	.	4E\	.	8g#/	.	8b\	.	1.r	.	1.r	.
.	.	.	.	4cc#\	.	4ee\	.	.	.	.	.
4E`\	.	4E\	.	.	.	.	.	.	.	.	.
.	.	.	.	4b/	.	4dd\	.	.	.	.	.
4E`\	.	4E\	.	.	.	.	.	.	.	.	.
.	.	.	.	8a/	.	8cc#\	.	.	.	.	.
4E`\	.	4E\	.	8g#/	.	8b\	.	.	.	.	.
.	.	.	.	4cc#\	.	4ee\	.	.	.	.	.
4E`\	.	4E\	.	.	.	.	.	.	.	.	.
.	.	.	.	4b/	.	4dd\	.	.	.	.	.
4E`\	.	4E\	.	.	.	.	.	.	.	.	.
.	.	.	.	8a/	.	8cc#\	.	.	.	.	.
=55	=55	=55	=55	=55	=55	=55	=55	=55	=55	=55	=55
4E\	7	4E\	.	8b/L	.	8dd\L	.	1.r	.	1.r	.
.	.	.	.	8g#/J	.	8b\J	.	.	.	.	.
4A\	3	4A\	.	4a/	.	4cc#\	.	.	.	.	.
4r	.	4r	.	4r	.	4r	.	.	.	.	.
4A\	.	4A\	.	4cc#\	.	4ee\	.	.	.	.	.
4r	.	4r	.	4dd\	.	4ff#\	.	.	.	.	.
4r	.	4r	.	4cc#\	.	4ee\	.	.	.	.	.
=56	=56	=56	=56	=56	=56	=56	=56	=56	=56	=56	=56
4D/	.	4D/	.	4dd\	.	4ff#\	.	1.r	.	1.r	.
4r	.	4r	.	8r	.	8r	.	.	.	.	.
!	!	!	!	!	!	!	!	!	!	!	!
.	.	.	.	8e/L	.	8g/L	.	.	.	.	.
4r	.	4r	.	8f#/	.	8a/	.	.	.	.	.
.	.	.	.	8b/J	.	8dd\J	.	.	.	.	.
4r	.	4r	.	8a/L	.	8cc#\L	.	.	.	.	.
.	.	.	.	8g#/J	.	8b\J	.	.	.	.	.
4E\	4	4E\	.	4.g#/	.	4.b/	.	.	.	.	.
4EE/	3	4EE/	.	.	.	.	.	.	.	.	.
.	.	.	.	8a/	.	8a/	.	.	.	.	.
=57	=57	=57	=57	=57	=57	=57	=57	=57	=57	=57	=57
!LO:TX:b:t=finis	!	!	!	!LO:TX:b:t=finis	!	!	!	!LO:TX:b:t=finis	!	!LO:TX:b:t=finis	!
!	!	!	!	!	!	!LO:TX:b:t=finis	!	!	!	!	!
!	!	!LO:TX:b:t=finis	!	!	!	!	!	!	!	!	!
4AA;/	.	4AA;/	.	2a;/	.	2a;/	.	2.r;	.	1.r;	.
!LO:TX:b:t=andante	!	!LO:TX:b:t=andante	!	!	!	!	!	!	!	!	!
4A\	3_	4A\	.	.	.	.	.	.	.	.	.
4G#\	.	4G#\	.	4r	.	4r	.	.	.	.	.
!LO:TX:b:i:t=Alto.	!	!	!	!	!	!LO:TX:t=P:problem=brak kreski taktowej	!	!	!	!	!
2F#\	.	2F#\	.	2.r	.	2.r	.	4f#\	O	.	.
.	.	.	.	.	.	.	.	4a\	dig-	.	.
4E#X\	6	4E#X\	.	.	.	.	.	4g#\	-ne	.	.
=58	=58	=58	=58	=58	=58	=58	=58	=58	=58	=58	=58
!	!	!	!	!LO:TX:a:t=9	!	!	!	!	!	!	!
!LO:SIC:v:t=custos C#	!	!	!	!LO:TX:b:t=andante	!	!LO:TX:b:t=andante	!	!	!	!	!
2.D/	7:6	2.D/	7:6	1.r	.	1.r	.	8f#\L	lau-	1.r	.
.	.	.	.	.	.	.	.	8cc#\	.	.	.
.	.	.	.	.	.	.	.	8b\	.	.	.
.	.	.	.	.	.	.	.	8a\J	.	.	.
.	.	.	.	.	.	.	.	8g#\L	-ro	.	.
.	.	.	.	.	.	.	.	8f#\J	.	.	.
!LO:LB:g=original	!	!	!	!	!	!	!	!	!	!	!
2.C#/	#4r	2.C#/	.	.	.	.	.	4.f#\	par-	.	.
.	.	.	.	.	.	.	.	8e#X\	-vu-	.	.
.	.	.	.	.	.	.	.	4e#\	-le	.	.
!	!	!	!	!	!	!	!	!	!	!	!
=59	=59	=59	=59	=59	=59	=59	=59	=59	=59	=59	=59
!LO:TX:b:i:t=Tenore.	!	!	!	!	!	!	!	!LO:TX:t=P:problem=brak kreski taktowej	!	!LO:TX:b:t=andante	!
2F#\	.	2F#\	.	1.r	.	1.r	.	2.r	.	4f#\	Ro-
.	.	.	.	.	.	.	.	.	.	4c#\	-sis
4G#\	#	4G#\	.	.	.	.	.	.	.	4B#X\	que
8A\L	.	8A\L	.	.	.	.	.	2.r	.	4c#\	di-
8G#\J	.	8G#\J	.	.	.	.	.	.	.	.	.
2F#\	6|	2F#\	.	.	.	.	.	.	.	8f#\L	-gne
.	.	.	.	.	.	.	.	.	.	8e\	.
.	.	.	.	.	.	.	.	.	.	8d#X\	.
.	.	.	.	.	.	.	.	.	.	8c#\J	.
=60	=60	=60	=60	=60	=60	=60	=60	=60	=60	=60	=60
2G#\	4	2G#\	.	1.r	.	1.r	.	2.r	.	4.c#\	le-
.	.	.	.	.	.	.	.	.	.	8B#X\	-ctu-
8G#\L	#_	8G#\L	.	.	.	.	.	.	.	4B#\	-le
8F#\J	.	8F#\J	.	.	.	.	.	.	.	.	.
!LO:TX:b:i:t=A.T.	!	!	!	!	!	!	!	!	!	!	!
2E\	.	2E\	.	.	.	.	.	8a\L	Sed	8e\L	sed
.	.	.	.	.	.	.	.	8b\J	.	8g#\J	.
.	.	.	.	.	.	.	.	8a\	nec	8f#\	nec
!	!	!	!	!	!	!	!	!LO:SIC:v:t=custos a	!	!	!
.	.	.	.	.	.	.	.	8g#\	ro-	8e\	ro-
!	!	!	!	!	!	!	!	!LO:LB:g=original	!	!	!
4r	.	4r	.	.	.	.	.	4a\	-sis	4f#\	-sis
!	!	!LO:LB:g=original	!	!	!	!	!	!	!	!	!
=61	=61	=61	=61	=61	=61	=61	=61	=61	=61	=61	=61
2BB/	7 #	2BB/	.	1.r	.	1.r	.	8f#\L	nec	8d#X\L	nec
.	.	.	.	.	.	.	.	8a\J	.	8f#\J	.
.	.	.	.	.	.	.	.	8g#\	vi-	8e\	vi-
.	.	.	.	.	.	.	.	8f#\	-o-	8d#X\	-o-
!	!	!	!	!	!	!	!	!	!	!LO:SIC:v:t=custos B#	!
4r	.	4r	.	.	.	.	.	4g#\	-lis	4e\	-lis
!	!	!	!	!	!	!	!	!	!	!LO:LB:g=original	!
4G#\	#	4G#\	.	.	.	.	.	2.r	.	4B#X\	or-
4E\	6	4E\	.	.	.	.	.	.	.	4c#\	-na-
4BB#X/	6	4BB#X/	.	.	.	.	.	.	.	4d#X\	-te
=62	=62	=62	=62	=62	=62	=62	=62	=62	=62	=62	=62
4C#/	-	4C#/	.	1.r	.	1.r	.	4g#\	or-	2e\	nec
4r	.	4r	.	.	.	.	.	4a#X\	-na-	.	.
4r	.	4r	.	.	.	.	.	4b#X\	-te	4d#X\	.
4C#/	3	4C#/	.	.	.	.	.	2.cc#\	nec	4e\	or-
4D#X\	3	4D#X/	.	.	.	.	.	.	.	4f#\	-na-
4E\	3	4E\	.	.	.	.	.	.	.	4g#\	-te
=63	=63	=63	=63	=63	=63	=63	=63	=63	=63	=63	=63
2.F#\	-	2.F#\	.	1.r	.	1.r	.	2.a\	nec	8r	.
.	.	.	.	.	.	.	.	.	.	8c#\	or-
.	.	.	.	.	.	.	.	.	.	8f#\L	-na-
.	.	.	.	.	.	.	.	.	.	8e\J	.
.	.	.	.	.	.	.	.	.	.	8d#X\L	-te
.	.	.	.	.	.	.	.	.	.	8c#\J	.
2.G#\	#	2.G#\	.	.	.	.	.	8r	.	2.B#X\	nec
.	.	.	.	.	.	.	.	8d#X\	or-	.	.
.	.	.	.	.	.	.	.	8g#\L	-na-	.	.
.	.	.	.	.	.	.	.	8f#\J	.	.	.
.	.	.	.	.	.	.	.	8e\L	-te	.	.
.	.	.	.	.	.	.	.	8d#X\J	.	.	.
=64	=64	=64	=64	=64	=64	=64	=64	=64	=64	=64	=64
4C#/	-_	4C#/	.	1.r	.	1.r	.	2e\	nec	2c#\	nec
4D#X/	.	4D#X/	.	.	.	.	.	.	.	.	.
4E\	.	4E\	.	.	.	.	.	4e\	li-	4c#\	li-
4F#\	6| 5	4F#\	.	.	.	.	.	2d#X\	-li-	2B#X\	-li-
4G#\	4	4G#\	.	.	.	.	.	.	.	.	.
4GG#/	#	4GG#/	.	.	.	.	.	4c#/	-o-	4c#\	-o-
=65	=65	=65	=65	=65	=65	=65	=65	=65	=65	=65	=65
2C#/	.	2C#/	.	1.r	.	1.r	.	2c#/	-lis	2c#\	-lis
4r	.	4r	.	.	.	.	.	4a\	nec	4f#\	nec
2.r	.	2.r	.	.	.	.	.	4.g#\	li-	4.e\	li-
.	.	.	.	.	.	.	.	8d#X\L	.	8B#X\L	.
.	.	.	.	.	.	.	.	8e\	.	8c#\	.
.	.	.	.	.	.	.	.	8f#\J	.	8d#X\J	.
=66	=66	=66	=66	=66	=66	=66	=66	=66	=66	=66	=66
!	!	!	!	!LO:TX:a:t=Da Capo	!	!LO:TX:a:t=Da Capo	!	!	!	!	!
4F#\	7 5	4F#\	.	1.r	.	1.r	.	8e\L	.	8c#\L	.
!	!	!	!	!	!	!	!	!LO:SIC:v:t=custos d#	!	!	!
.	.	.	.	.	.	.	.	8d#X\J	.	8B#X\J	.
!	!	!	!	!	!	!	!	!LO:LB:g=original	!	!	!
4G#\	4	4G#\	.	.	.	.	.	4.d#X\	-li-	4.B#\	-li-
4GG#/	#	4GG#/	.	.	.	.	.	.	.	.	.
.	.	.	.	.	.	.	.	8c#/	-o-	8c#\	-o-
!LO:LB:g=original	!	!	!	!	!	!	!	!	!	!	!
2C#/	.	2C#/	.	.	.	.	.	2c#/	-lis	2c#\	-lis
!LO:TX:a:t=Da Capo	!	!LO:TX:a:t=Da Capo	!	!	!	!	!	!LO:TX:a:t=Da Capo	!	!LO:TX:a:t=Da\nCapo	!
4r	.	4r	.	.	.	.	.	4r	.	4r	.
==	==	==	==	==	==	==	==	==	==	==	==
*-	*-	*-	*-	*-	*-	*-	*-	*-	*-	*-	*-
!!!system-decoration: [(s1,s2)][(s3,s4,s5)]s6
!!!RDF**kern: > = above
!!!RDF**kern: < = below
!!!ENC: Andrzej Gręziak
!!!END: 2020-07-31
!!!AIN: 1 bass 1 organ 1 soprn 1 viola 2 violn
!!!ENC: Jan Barakat
!!!END: 2022-03-09
